img/get-money.svg

<svg width="73" height="80" viewBox="0 0 73 80" fill="none" xmlns="http://www.w3.org/2000/svg">
<path d="M41.2246 37.4076C41.2246 33.8926 38.3459 31.0139 34.831 31.0139H29.662C27.4831 31.0139 25.7176 29.2485 25.7176 27.0696C25.7176 24.8907 27.4831 23.1252 29.662 23.1252H36.1192C37.5825 23.1252 38.7753 24.3181 38.7753 25.7813C38.7753 26.4493 39.316 27.006 39.9999 27.006C40.6679 27.006 41.2246 26.4652 41.2246 25.7813C41.2246 22.9662 38.9343 20.6918 36.1192 20.6759H33.4632V16.7316C33.4632 16.0636 32.9224 15.507 32.2385 15.507C31.5705 15.507 31.0139 16.0477 31.0139 16.7316V20.6759H29.6461C26.1153 20.6759 23.2524 23.5388 23.2524 27.0696C23.2524 30.6004 26.1153 33.4632 29.6461 33.4632H34.831C37.0099 33.4632 38.7753 35.2286 38.7753 37.4076C38.7753 39.5865 37.0099 41.3519 34.831 41.3519H28.3737C26.9105 41.3519 25.7176 40.159 25.7176 38.6958C25.7176 38.0278 25.1769 37.4712 24.493 37.4712C23.825 37.4712 23.2683 38.0119 23.2683 38.6958C23.2683 41.5109 25.5586 43.7853 28.3737 43.8012H31.0139V47.7455C31.0139 48.4135 31.5546 48.9702 32.2385 48.9702C32.9065 48.9702 33.4632 48.4294 33.4632 47.7455V43.8012H34.831C38.3459 43.8012 41.2087 40.9384 41.2246 37.4076Z" fill="black"/>
<path d="M71.7455 56.3499C70.5686 51.2604 67.34 46.8071 62.8549 44.1193L62.3459 43.8171L62.5527 43.2604C63.841 39.7137 64.493 36.0079 64.4771 32.2386C64.4771 14.4572 50.0199 0 32.2386 0C14.4573 0 0 14.4572 0 32.2386C0 50.0199 14.4573 64.4771 32.2386 64.4771C32.5726 64.4771 32.9384 64.4771 33.3678 64.4612L33.9563 64.4453L34.0835 65.0179C35.2445 70.0437 38.2823 74.322 42.6561 77.0576C47.0298 79.7932 52.2147 80.668 57.2406 79.5069C67.6262 77.1053 74.1312 66.7197 71.7455 56.3499ZM33.8608 57.5427C33.6859 58.5765 33.6064 59.6262 33.6064 60.6759C33.6064 60.8827 33.6064 61.0894 33.6223 61.2962L33.6382 62.0119L32.9225 62.0278C32.6998 62.0278 32.4771 62.0278 32.2545 62.0278C15.8091 62.0278 2.4493 48.668 2.4493 32.2386C2.4493 15.8091 15.8091 2.4493 32.2386 2.4493C48.668 2.4493 62.0278 15.8091 62.0278 32.2386C62.0278 35.5944 61.4712 38.8867 60.3738 42.0517L60.1352 42.7356L59.4513 42.497C58.2744 42.0676 57.0497 41.7654 55.8091 41.5745L54.9503 41.4473L55.2525 40.6203C56.2386 37.9324 56.7316 35.1014 56.7316 32.2386C56.7316 18.7356 45.7416 7.74552 32.2386 7.74552C18.7356 7.74552 7.74553 18.7356 7.74553 32.2386C7.74553 45.7415 18.7356 56.7316 32.2386 56.7316C32.5248 56.7316 32.827 56.7316 33.1292 56.7157L34.004 56.6839L33.8608 57.5427ZM34.7356 54.1391L34.2903 54.1869C33.5905 54.2505 32.8907 54.2823 32.2386 54.2823C20.0875 54.2823 10.1948 44.3896 10.1948 32.2386C10.1948 20.0875 20.0875 10.1948 32.2386 10.1948C44.3897 10.1948 54.2823 20.0875 54.2823 32.2386C54.2982 35.2445 53.6938 38.1869 52.4851 40.9543L52.3101 41.3678L51.8648 41.3996C44.2942 41.8131 37.6302 46.664 34.8946 53.7415L34.7356 54.1391ZM52.9145 77.5507C43.6103 77.5507 36.0398 69.9801 36.0398 60.6759C36.0398 51.3717 43.6103 43.8012 52.9145 43.8012C62.2187 43.8012 69.7893 51.3717 69.7893 60.6759C69.7734 69.9642 62.2187 77.5348 52.9145 77.5507Z" fill="black"/>
<path d="M58.0837 67.1968H49.034C47.5708 67.1968 46.3779 66.0039 46.3779 64.5407V59.3717C46.3779 57.9085 47.5708 56.7157 49.034 56.7157H55.1255L52.0559 59.8012C51.5787 60.2783 51.5628 61.0576 52.04 61.5348C52.5171 62.0119 53.2964 62.0278 53.7736 61.5507L53.7895 61.5348L58.9585 56.3658C59.4356 55.8886 59.4356 55.1093 58.9585 54.6322L53.7895 49.4632C53.5668 49.2405 53.2487 49.1133 52.9306 49.1133C52.5966 49.1133 52.2944 49.2405 52.0718 49.4791C51.6105 49.9562 51.6105 50.7196 52.0718 51.1968L55.1573 54.2823H49.0658C46.2507 54.2823 43.9764 56.5725 43.9604 59.3876V64.5566C43.9604 67.3717 46.2507 69.6461 49.0658 69.662H58.1155C58.7835 69.662 59.3402 69.1212 59.3402 68.4373C59.3402 67.7534 58.7676 67.1968 58.0837 67.1968Z" fill="black"/>
</svg>

<svg width="73" height="80" fill="none" xmlns="http://www.w3.org/2000/svg"><path d="M41.225 37.408c0-3.515-2.88-6.394-6.394-6.394h-5.169a3.944 3.944 0 110-7.889h6.457a2.66 2.66 0 012.656 2.656 1.225 1.225 0 002.45 0c0-2.815-2.29-5.09-5.106-5.105h-2.656v-3.944a1.225 1.225 0 00-2.45 0v3.944h-1.367a6.394 6.394 0 000 12.787h5.185a3.944 3.944 0 110 7.889h-6.457a2.66 2.66 0 01-2.656-2.656 1.225 1.225 0 00-2.45 0c0 2.815 2.29 5.09 5.106 5.105h2.64v3.944a1.225 1.225 0 002.45 0v-3.944h1.367c3.515 0 6.378-2.863 6.394-6.393z" fill="#000"/><path d="M71.746 56.35a19.409 19.409 0 00-8.891-12.23l-.51-.303.208-.557a31.787 31.787 0 001.924-11.021C64.477 14.457 50.02 0 32.24 0 14.457 0 0 14.457 0 32.239c0 17.78 14.457 32.238 32.239 32.238.334 0 .7 0 1.129-.016l.588-.016.127.573c1.162 5.026 4.2 9.304 8.573 12.04a19.193 19.193 0 0014.585 2.449C67.626 77.105 74.13 66.72 71.746 56.35zM33.86 57.543a18.79 18.79 0 00-.255 3.133c0 .207 0 .413.016.62l.016.716-.715.016h-.669c-16.445 0-29.805-13.36-29.805-29.79C2.45 15.81 15.81 2.45 32.24 2.45c16.429 0 29.789 13.36 29.789 29.79 0 3.355-.557 6.648-1.654 9.813l-.239.684-.684-.239a19.11 19.11 0 00-3.642-.922l-.859-.128.302-.827a24.299 24.299 0 001.48-8.381c0-13.503-10.99-24.493-24.493-24.493-13.503 0-24.493 10.99-24.493 24.493 0 13.503 10.99 24.493 24.493 24.493.286 0 .588 0 .89-.016l.875-.032-.143.859zm.875-3.404l-.446.048c-.7.064-1.4.095-2.051.095-12.151 0-22.044-9.892-22.044-22.043s9.892-22.044 22.044-22.044c12.15 0 22.043 9.892 22.043 22.044a21.394 21.394 0 01-1.797 8.715l-.175.414-.445.032c-7.57.413-14.235 5.264-16.97 12.342l-.16.397zm18.178 23.412c-9.304 0-16.874-7.57-16.874-16.875 0-9.304 7.57-16.875 16.874-16.875 9.305 0 16.875 7.57 16.875 16.875-.016 9.288-7.57 16.859-16.875 16.875z" fill="#000"/><path d="M58.084 67.197h-9.05a2.66 2.66 0 01-2.656-2.656v-5.17a2.66 2.66 0 012.656-2.655h6.092l-3.07 3.085c-.477.477-.493 1.257-.016 1.734.477.477 1.256.493 1.734.016l.015-.016 5.17-5.17a1.229 1.229 0 000-1.733l-5.17-5.169a1.229 1.229 0 00-.858-.35c-.334 0-.637.127-.86.366a1.239 1.239 0 000 1.718l3.086 3.085h-6.091c-2.815 0-5.09 2.29-5.106 5.106v5.169c0 2.815 2.29 5.09 5.106 5.105h9.05c.667 0 1.224-.54 1.224-1.225 0-.684-.572-1.24-1.256-1.24z" fill="#000"/></svg>
